X: 3069
T: BONNIE BESSIE LEE
Q:"Strathspey."
R: Strathspey.
%R:strathspey
B: James Kerr "Merry Melodies" v.3 p.9 #69
Z: 2016 John Chambers <jc:trillian.mit.edu>
M: C
L: 1/8
K: G
ue |\
vd>vBuG>uB d2d>e | g>f (g<b) e2(e>f) |\
g>ag>e (d<B) g>d |[1 c>BA>G A3 :|[2 c>BA>G A2 (g>a) |]\
b>ag>B d>eg>a | b>ag>B d2(B>A) |
G>A(B>d) g2 (3(gab) | c'>ba>g a2g>a |\
b>ag>B d>eg>a | b>ag>B d2 (3(gab) |\
c'>ba>g e>fg>e | d<b a>b g3 |]

%%sep 1 1 500
%%sep 1 1 500

